svgs/sharp-regular/head-side-virus.svg

<svg xmlns="http://www.w3.org/2000/svg" viewBox="0 0 512 512"><!--! Font Awesome Pro 6.6.0 by @fontawesome - https://fontawesome.com License - https://fontawesome.com/license (Commercial License) Copyright 2024 Fonticons, Inc. --><path d="M112 361.7l0 19.6 0 66.8 0 16 0 48-16 0-32 0 0-32 0-16 0-82.8c-41-41.9-64-98.3-64-157C0 100.6 100.2 0 224 0l32 0C357.8 0 441.1 79.2 447.6 179.4l56.3 63.4 8.1 9.1 0 12.2 0 24 0 16 0 32-16 0-16 0-16 0-16 0 0 48 0 16 0 16 0 32-32 0-16 0-32 0-48 0 0 16 0 16 0 16 0 16-32 0-16 0 0-48 0-16 0-48 48 0 80 0 0-64 0-48 48 0 16 0 0-17.9-52.3-58.8-11-12.3-1.1-16.5C394.8 107.4 332.3 48 256 48l-32 0C126.8 48 48 127 48 224.2c0 46.1 18.1 90.5 50.3 123.4l13.7 14zM314.5 110.9l11.3 11.3 11.3 11.3-11.3 11.3C302.5 168.1 319 208 352 208l16 0 0 16 0 16-16 0c-33 0-49.5 39.9-26.2 63.2l11.3 11.3-11.3 11.3-11.3 11.3-11.3-11.3C279.9 302.5 240 319 240 352l0 16-16 0-16 0 0-16c0-33-39.9-49.5-63.2-26.2l-11.3 11.3-11.3-11.3s0 0 0 0l-11.3-11.3 11.3-11.3C145.5 279.9 129 240 96 240l-16 0 0-16 0-16 16 0c33 0 49.5-39.9 26.2-63.2l-11.3-11.3 11.3-11.3s0 0 0 0l11.3-11.3 11.3 11.3C168.1 145.5 208 129 208 96l0-16 16 0 16 0 0 16c0 33 39.9 49.5 63.2 26.2l11.3-11.3zM200 224a24 24 0 1 0 0-48 24 24 0 1 0 0 48zm72 32a16 16 0 1 0 -32 0 16 16 0 1 0 32 0z"/></svg>

<svg xmlns="http://www.w3.org/2000/svg" viewBox="0 0 512 512"><!--! Font Awesome Pro 6.4.0 by @fontawesome - https://fontawesome.com License - https://fontawesome.com/license (Commercial License) Copyright 2023 Fonticons, Inc. --><path d="M112 361.7v19.6V448v16 48H96 64V480 464 381.2c-41-41.9-64-98.3-64-157C0 100.6 100.2 0 224 0h32C357.8 0 441.1 79.2 447.6 179.4l56.3 63.4 8.1 9.1V264v24 16 32H496 480 464 448v48 16 16 32H416 400 368 320v16 16 16 16H288 272V464 448 400h48 80V336 288h48 16V270.1l-52.3-58.8-11-12.3-1.1-16.5C394.8 107.4 332.3 48 256 48H224C126.8 48 48 127 48 224.2c0 46.1 18.1 90.5 50.3 123.4l13.7 14zM314.5 110.9l11.3 11.3 11.3 11.3-11.3 11.3C302.5 168.1 319 208 352 208h16v16 16H352c-33 0-49.5 39.9-26.2 63.2l11.3 11.3-11.3 11.3-11.3 11.3-11.3-11.3C279.9 302.5 240 319 240 352v16H224 208V352c0-33-39.9-49.5-63.2-26.2l-11.3 11.3-11.3-11.3 0 0-11.3-11.3 11.3-11.3C145.5 279.9 129 240 96 240H80V224 208H96c33 0 49.5-39.9 26.2-63.2l-11.3-11.3 11.3-11.3 0 0 11.3-11.3 11.3 11.3C168.1 145.5 208 129 208 96V80h16 16V96c0 33 39.9 49.5 63.2 26.2l11.3-11.3zM200 224a24 24 0 1 0 0-48 24 24 0 1 0 0 48zm72 32a16 16 0 1 0 -32 0 16 16 0 1 0 32 0z"/></svg>
